6/img/icon-burger.svg

<svg width="40" height="36" viewBox="0 0 40 36" fill="none" xmlns="http://www.w3.org/2000/svg">
<path d="M37.7428 23.8505H2.25722C0.997375 23.8505 0 24.8635 0 26.0285V27.8014C0 28.9664 0.997375 29.9288 2.25722 29.9288H2.78215V30.4354C2.78215 33.2213 5.14436 35.45 7.979 35.45H32.021C34.9081 35.45 37.2178 33.1706 37.2178 30.4354V29.9288H37.7428C38.9501 29.9288 40 28.9664 40 27.7508V25.9779C40 24.8635 39.0026 23.8505 37.7428 23.8505ZM35.6955 30.4354C35.6955 32.3602 34.0682 33.9304 32.0735 33.9304H7.92651C5.93176 33.9304 4.30446 32.3602 4.30446 30.4354V29.9288H35.6955V30.4354ZM38.4252 27.7508C38.4252 28.1053 38.1102 28.4092 37.7428 28.4092H2.25722C1.88976 28.4092 1.5748 28.1053 1.5748 27.7508V25.9779C1.5748 25.674 1.88976 25.3701 2.25722 25.3701H37.7953C38.1627 25.3701 38.4777 25.674 38.4777 26.0285V27.7508H38.4252Z" fill="#81B3D2"/>
<path d="M8.50395 19.7473L11.3386 21.7735L14.2257 19.7473L17.1129 21.7735L20 19.7473L22.8347 21.7735L25.7218 19.7473L28.6089 21.7735L31.4961 19.7473L34.3832 21.7735L37.6903 19.3928L36.7979 18.1771L34.3832 19.8486L31.4961 17.8225L28.6089 19.8486L25.7218 17.8225L22.8347 19.8486L20 17.8225L17.1129 19.8486L14.2257 17.8225L11.3386 19.8486L8.50395 17.8225L5.61682 19.8486L3.20212 18.1771L2.25723 19.3928L5.61682 21.7735L8.50395 19.7473Z" fill="#81B3D2"/>
<path d="M37.2179 16.3032C37.2179 15.9993 37.2704 14.9862 37.2179 14.7836C36.8504 6.88169 29.2913 0.550049 20 0.550049C10.7087 0.550049 3.09712 6.88169 2.72967 14.7836C2.72967 14.9862 2.72967 15.9993 2.72967 16.3032H37.2179ZM20 2.06964C28.399 2.06964 35.3281 7.74279 35.6431 14.7836H4.30447C4.67193 7.74279 11.6011 2.06964 20 2.06964Z" fill="#81B3D2"/>
<path d="M20 9.16113C20.5798 9.16113 21.0499 8.70757 21.0499 8.14807C21.0499 7.58857 20.5798 7.13501 20 7.13501C19.4202 7.13501 18.9501 7.58857 18.9501 8.14807C18.9501 8.70757 19.4202 9.16113 20 9.16113Z" fill="#81B3D2"/>
<path d="M15.8005 6.67871C16.3803 6.67871 16.8504 6.22515 16.8504 5.66565C16.8504 5.10615 16.3803 4.65259 15.8005 4.65259C15.2207 4.65259 14.7506 5.10615 14.7506 5.66565C14.7506 6.22515 15.2207 6.67871 15.8005 6.67871Z" fill="#81B3D2"/>
<path d="M24.1995 6.67871C24.7793 6.67871 25.2493 6.22515 25.2493 5.66565C25.2493 5.10615 24.7793 4.65259 24.1995 4.65259C23.6196 4.65259 23.1496 5.10615 23.1496 5.66565C23.1496 6.22515 23.6196 6.67871 24.1995 6.67871Z" fill="#81B3D2"/>
</svg>

<svg width="40" height="36" fill="none" xmlns="http://www.w3.org/2000/svg"><path d="M37.743 23.85H2.257C.997 23.85 0 24.864 0 26.029v1.773c0 1.165.997 2.128 2.257 2.128h.525v.506c0 2.786 2.362 5.015 5.197 5.015h24.042c2.887 0 5.197-2.28 5.197-5.015v-.506h.525c1.207 0 2.257-.963 2.257-2.178v-1.773c0-1.115-.997-2.128-2.257-2.128Zm-2.047 6.585c0 1.925-1.628 3.495-3.622 3.495H7.927c-1.995 0-3.623-1.57-3.623-3.495v-.506h31.392v.506Zm2.73-2.684c0 .354-.316.658-.683.658H2.257c-.367 0-.682-.304-.682-.658v-1.773c0-.304.315-.608.682-.608h35.538c.368 0 .683.304.683.659v1.722h-.053ZM8.504 19.747l2.835 2.026 2.887-2.026 2.887 2.026L20 19.747l2.835 2.026 2.887-2.026 2.887 2.026 2.887-2.026 2.887 2.026 3.307-2.38-.892-1.216-2.415 1.672-2.887-2.026-2.887 2.026-2.887-2.026-2.887 2.026L20 17.823l-2.887 2.026-2.887-2.026-2.887 2.026-2.835-2.026-2.887 2.026-2.415-1.672-.945 1.216 3.36 2.38 2.887-2.026ZM37.218 16.303c0-.304.052-1.317 0-1.52C36.85 6.883 29.29.55 20 .55S3.097 6.882 2.73 14.784v1.52h34.488ZM20 2.07c8.399 0 15.328 5.673 15.643 12.714H4.304C4.672 7.743 11.601 2.07 20 2.07Z" fill="#81B3D2"/><path d="M20 9.161c.58 0 1.05-.453 1.05-1.013 0-.56-.47-1.013-1.05-1.013-.58 0-1.05.454-1.05 1.013 0 .56.47 1.013 1.05 1.013ZM15.8 6.679c.58 0 1.05-.454 1.05-1.013 0-.56-.47-1.013-1.05-1.013-.58 0-1.05.453-1.05 1.013 0 .56.47 1.013 1.05 1.013ZM24.2 6.679c.58 0 1.05-.454 1.05-1.013 0-.56-.47-1.013-1.05-1.013-.58 0-1.05.453-1.05 1.013 0 .56.47 1.013 1.05 1.013Z" fill="#81B3D2"/></svg>
